X:1
T:Partition sans titre
C:Compositeur / Arrangeur
L:1/8
M:4/4
I:linebreak $
K:G
V:1 treble nm="Violon" snm="Vln."
V:1
"G" B,DG,D B,DG,D |"C" CDEF GBAG |"D" FADA FADA |"G" GABc dBAG |"G" B,DG,D B,DG,D |"C" CDEF GBAG | %6
"D" FADA FADA |1"G" GBAF G2 DC :|2"G" GBAF G2 Bc |:"G" dgga gBdg |"C" bgdg ecAG |"D" FGAB cAFA | %12
 fedf"Em" edBc |"G" dgga gBdg |"C" bgdg ecAG |1"D" FGAB cAFA |"G" GBAF G2 Bc :|2"D" FGAB AGFE | %18
"G" DCB,A, G,4 |] %19
